X:117
T:Darktown Strutters' Ball
C:Ricky Skaggs
N:From "Ricky Skaggs - That's It"
R:bluegrass
L:1/8
Q:1/4=226
M:4/4
K:C
"F"z8 | "D7"z8 | "C"z8 | "A7"z8 | "D7"z8 | "G7"z8 | "C"z8 | 
"G7"z6 GE | "C"{_B,}C2 E2 G2 AB | c2 A2 GE2E | "D"DE ^F2 A2 AB | cd Bc AD3 | "G"z2 {c}d2 d2 _B=B | 
d2 _B=B AG3 | "C"{B}cd c2 c{d}e2c | "G7"d2 c2 AG2B, | "C"CD EF GE GA | [c2G2] Ac AG EC | 
"D"DE ^FG A2 AB | cd Bc AD3 | "F"z2 {c}d2 d2 cd | "D7"Bd B_B AG EG | "C"ce ce Bd BG | 
"A7"AB AG E2 EG | "D7"AA Ac z{d}e2e | "G7"d2 _B=B AG G2 | "C"cA _BA G{^D}E2=D | 
"G7"(3G^F=F D^D EC A,G, | "Begin Second Sol""C"g2 a2 c'2 ac' | ag ea ge cA | "D"a^g =g^f d^c =cB | 
cB AG ^FA DF | "G"G^F =FE d^c =cB | a^g =g^f ga2c' | "C"zc'2g ag eg | "G7"ag e^d =dc A^G | 
"C"GA cd ^de GA | cd ^de de z2 | "D"^fg ^ga Bc ^cd | cB AF ^FD E2 | "F"z2 {c}d2 d2 cA | 
"D7"Bd B_B AG G2 | "C"z{B}c2c B2 _B2 | "A7"AB AG ED EG | "D7"AA AB cd ee | {c}"G7"dA BB AG G2 | 
"C"ce cA Bd B_B | "A7"AB AG ED EG | "D7"AA Ac z{d}e e2 | "G7"d2 BB AG G2 | [e2c2E2G,2] [e4c4E4G,4] [ecEG,][ecEG,] | 
[e8c8E8G,8] | 


